Dominus_Dark_Funeral/scalable/actions/media-random-albums-amarok.svg

<svg xmlns="http://www.w3.org/2000/svg" width="24" height="24"><path d="M17 4.5V7h-3.33c-2.77 0-5 2.23-5 5a3.33 3.33 0 0 1-3.34 3.33H2V17h3.33c2.77 0 5-2.23 5-5a3.33 3.33 0 0 1 3.34-3.33H17v2.5l5-3.34-5-3.33zM2 7v1.67h3.33c.67 0 1.3.2 1.81.53.13-.55.35-1.07.64-1.54A4.97 4.97 0 0 0 5.33 7H2zm.67 3.06v3.88h1v-1.47h.29c.16 0 .3.04.39.11.1.07.2.2.3.4l.47.96h1.06l-.54-1.1c-.11-.22-.22-.4-.33-.5a.73.73 0 0 0-.37-.21c.25-.08.44-.2.56-.37.13-.16.19-.37.19-.63 0-.37-.12-.64-.36-.82-.24-.17-.61-.25-1.13-.25H2.67zm1 .72h.43c.2 0 .36.04.45.12.09.07.14.2.14.38s-.05.3-.14.38c-.1.08-.24.12-.45.12h-.43v-1zM17 12.83v2.5h-3.33c-.67 0-1.3-.2-1.81-.53a4.96 4.96 0 0 1-.64 1.54c.72.4 1.55.66 2.45.66H17v2.5l5-3.33-5-3.34z" fill="#e6e6e6"/></svg>

<?xml version="1.0" encoding="UTF-8" standalone="no"?>
<svg
   xmlns:dc="http://purl.org/dc/elements/1.1/"
   xmlns:cc="http://creativecommons.org/ns#"
   xmlns:rdf="http://www.w3.org/1999/02/22-rdf-syntax-ns#"
   xmlns:svg="http://www.w3.org/2000/svg"
   xmlns="http://www.w3.org/2000/svg"
   xmlns:sodipodi="http://sodipodi.sourceforge.net/DTD/sodipodi-0.dtd"
   xmlns:inkscape="http://www.inkscape.org/namespaces/inkscape"
   width="24"
   height="24"
   version="1.1"
   id="svg4"
   sodipodi:docname="media-random-albums-amarok.svg"
   inkscape:version="0.92.4 (5da689c313, 2019-01-14)">
  <metadata
     id="metadata10">
    <rdf:RDF>
      <cc:Work
         rdf:about="">
        <dc:format>image/svg+xml</dc:format>
        <dc:type
           rdf:resource="http://purl.org/dc/dcmitype/StillImage" />
        <dc:title></dc:title>
      </cc:Work>
    </rdf:RDF>
  </metadata>
  <defs
     id="defs8" />
  <sodipodi:namedview
     pagecolor="#ffffff"
     bordercolor="#666666"
     borderopacity="1"
     objecttolerance="10"
     gridtolerance="10"
     guidetolerance="10"
     inkscape:pageopacity="0"
     inkscape:pageshadow="2"
     inkscape:window-width="1112"
     inkscape:window-height="480"
     id="namedview6"
     showgrid="false"
     inkscape:zoom="9.8333333"
     inkscape:cx="1.0677966"
     inkscape:cy="12"
     inkscape:window-x="0"
     inkscape:window-y="25"
     inkscape:window-maximized="0"
     inkscape:current-layer="svg4" />
  <path
     d="M 17,4.5 V 7 h -3.33 c -2.77,0 -5,2.23 -5,5 A 3.33,3.33 0 0 1 5.33,15.33 H 2 V 17 h 3.33 c 2.77,0 5,-2.23 5,-5 A 3.33,3.33 0 0 1 13.67,8.67 H 17 v 2.5 L 22,7.83 Z M 2,7 V 8.67 H 5.33 C 6,8.67 6.63,8.87 7.14,9.2 7.27,8.65 7.49,8.13 7.78,7.66 A 4.97,4.97 0 0 0 5.33,7 Z m 0.67,3.06 v 3.88 h 1 v -1.47 h 0.29 c 0.16,0 0.3,0.04 0.39,0.11 0.1,0.07 0.2,0.2 0.3,0.4 l 0.47,0.96 H 6.18 L 5.64,12.84 C 5.53,12.62 5.42,12.44 5.31,12.34 A 0.73,0.73 0 0 0 4.94,12.13 C 5.19,12.05 5.38,11.93 5.5,11.76 5.63,11.6 5.69,11.39 5.69,11.13 5.69,10.76 5.57,10.49 5.33,10.31 5.09,10.14 4.72,10.06 4.2,10.06 Z m 1,0.72 H 4.1 c 0.2,0 0.36,0.04 0.45,0.12 0.09,0.07 0.14,0.2 0.14,0.38 0,0.18 -0.05,0.3 -0.14,0.38 -0.1,0.08 -0.24,0.12 -0.45,0.12 H 3.67 Z M 17,12.83 v 2.5 h -3.33 c -0.67,0 -1.3,-0.2 -1.81,-0.53 a 4.96,4.96 0 0 1 -0.64,1.54 c 0.72,0.4 1.55,0.66 2.45,0.66 H 17 v 2.5 l 5,-3.33 z"
     id="path2"
     inkscape:connector-curvature="0"
     style="fill:#e6e6e6" />
</svg>
